icon-themes/sifr_svg/sw/res/twopages_10x24.svg

<svg height="10" viewBox="0 0 5.8208331 2.6458334" width="22" xmlns="http://www.w3.org/2000/svg"><g fill="#2e3436" stroke-width=".132291"><path d="m3.5718749 0c-.2175802 0-.396875.1792949-.396875.396875l.0000001 1.8520833c0 .2175801.1792948.396875.396875.396875h1.3229166c.2175803 0 .3968751-.1792949.396875-.396875v-1.6536458c-.0000068-.0350836-.013948-.068728-.038757-.0935342l-.4630211-.4630208c-.0248063-.02480956-.0584508-.03875072-.0935344-.0387575zm0 .2645833.9260417.00000005v.26458333c.0000001.1322917.1322919.26458333.2645834.26458333h.2645833v1.45520829c0 .075578-.056714.1322917-.1322917.1322917h-1.3229166c-.075578 0-.1322916-.056714-.1322916-.1322917l-.0000001-1.8520833c0-.075578.056714-.1322917.1322916-.1322917z" opacity=".35"/><path d="m.92604144 0c-.2175802 0-.39687505.1792949-.39687505.396875l.0000001 1.8520833c0 .2175801.17929485.396875.39687505.396875h1.32291656c.2175803 0 .3968751-.1792949.396875-.396875v-1.6536458c-.0000068-.0350836-.013948-.068728-.038757-.0935342l-.4630211-.4630208c-.0248063-.02480956-.0584508-.03875072-.0935344-.0387575zm0 .2645833.92604166.00000005v.26458333c.0000001.1322917.1322919.26458333.2645834.26458333h.2645833v1.45520829c0 .075578-.056714.1322917-.1322917.1322917h-1.32291656c-.075578 0-.1322916-.056714-.1322916-.1322917l-.0000001-1.8520833c0-.075578.056714-.1322917.1322916-.1322917z" opacity=".35"/></g></svg>

<?xml version="1.0" encoding="UTF-8" standalone="no"?>
<svg
   height="14"
   viewBox="0 0 5.8208331 3.7041668"
   width="22"
   version="1.1"
   id="svg264"
   sodipodi:docname="twopages_10x24.svg"
   inkscape:export-filename="twopages_10x24.png"
   inkscape:export-xdpi="90"
   inkscape:export-ydpi="90"
   inkscape:version="1.2.2 (b0a8486541, 2022-12-01)"
   xmlns:inkscape="http://www.inkscape.org/namespaces/inkscape"
   xmlns:sodipodi="http://sodipodi.sourceforge.net/DTD/sodipodi-0.dtd"
   xmlns="http://www.w3.org/2000/svg"
   xmlns:svg="http://www.w3.org/2000/svg">
  <defs
     id="defs268" />
  <sodipodi:namedview
     id="namedview266"
     pagecolor="#505050"
     bordercolor="#ffffff"
     borderopacity="1"
     inkscape:showpageshadow="0"
     inkscape:pageopacity="0"
     inkscape:pagecheckerboard="1"
     inkscape:deskcolor="#505050"
     showgrid="false"
     inkscape:zoom="23.6"
     inkscape:cx="11.080508"
     inkscape:cy="5.0211864"
     inkscape:window-width="1322"
     inkscape:window-height="847"
     inkscape:window-x="30"
     inkscape:window-y="478"
     inkscape:window-maximized="0"
     inkscape:current-layer="svg264" />
  <g
     fill="#2e3436"
     stroke-width="0.132291"
     id="g262"
     transform="translate(0,0.52916667)">
    <path
       d="M 3.5718749,0 C 3.3542947,0 3.1749999,0.1792949 3.1749999,0.396875 l 10e-8,1.8520833 c 0,0.2175801 0.1792948,0.396875 0.396875,0.396875 h 1.3229166 c 0.2175803,0 0.3968751,-0.1792949 0.396875,-0.396875 V 0.5953125 C 5.2916598,0.5602289 5.2777186,0.5265845 5.2529096,0.5017783 L 4.7898885,0.0387575 C 4.7650822,0.01394794 4.7314377,6.78e-6 4.6963541,0 Z m 0,0.2645833 0.9260417,5e-8 v 0.26458333 c 1e-7,0.1322917 0.1322919,0.26458333 0.2645834,0.26458333 H 5.0270833 V 2.2489583 c 0,0.075578 -0.056714,0.1322917 -0.1322917,0.1322917 H 3.571875 c -0.075578,0 -0.1322916,-0.056714 -0.1322916,-0.1322917 l -1e-7,-1.8520833 c 0,-0.075578 0.056714,-0.1322917 0.1322916,-0.1322917 z"
       opacity="0.35"
       id="path258" />
    <path
       d="M 0.92604144,0 C 0.70846124,0 0.52916639,0.1792949 0.52916639,0.396875 l 1e-7,1.8520833 c 0,0.2175801 0.17929485,0.396875 0.39687505,0.396875 H 2.2489581 c 0.2175803,0 0.3968751,-0.1792949 0.396875,-0.396875 V 0.5953125 C 2.6458263,0.5602289 2.6318851,0.5265845 2.6070761,0.5017783 L 2.144055,0.0387575 C 2.1192487,0.01394794 2.0856042,6.78e-6 2.0505206,0 Z m 0,0.2645833 0.92604166,5e-8 v 0.26458333 c 1e-7,0.1322917 0.1322919,0.26458333 0.2645834,0.26458333 H 2.3812498 V 2.2489583 c 0,0.075578 -0.056714,0.1322917 -0.1322917,0.1322917 H 0.92604154 c -0.075578,0 -0.1322916,-0.056714 -0.1322916,-0.1322917 l -10e-8,-1.8520833 c 0,-0.075578 0.056714,-0.1322917 0.1322916,-0.1322917 z"
       opacity="0.35"
       id="path260" />
  </g>
</svg>
